dist/assets/img/benefits/safety.svg

<svg width="48" height="48" viewBox="0 0 48 48" fill="none" xmlns="http://www.w3.org/2000/svg">
<path d="M8.22266 12.1761C8.22266 11.8866 8.40078 11.627 8.67086 11.5228L20.2212 7.06616C22.4618 6.20164 23.2277 5.93113 24.001 5.93113C24.7743 5.93113 25.5401 6.20164 27.7807 7.06615L39.3311 11.5228C39.6012 11.627 39.7793 11.8866 39.7793 12.1761V19.4181C39.7793 29.5935 33.5183 38.7201 24.0251 42.383L24.565 43.7824L24.0251 42.383C24.0096 42.3889 23.9924 42.3889 23.9769 42.383L23.4369 43.7824L23.9769 42.383C14.4836 38.7201 8.22266 29.5935 8.22266 19.4181V12.1761Z" stroke="#1D1D1B" stroke-width="3"/>
<path d="M18 21.1514L22 25.1514L30 17.1514" stroke="#1D1D1B" stroke-width="3" stroke-linecap="round" stroke-linejoin="round"/>
</svg>

<svg width="48" height="48" fill="none" xmlns="http://www.w3.org/2000/svg"><path d="M8.223 12.176a.7.7 0 01.448-.653l11.55-4.457c2.24-.864 3.007-1.135 3.78-1.135.773 0 1.54.27 3.78 1.135l11.55 4.457a.7.7 0 01.448.653v7.242a24.615 24.615 0 01-15.754 22.965l.54 1.4-.54-1.4a.068.068 0 01-.048 0l-.54 1.4.54-1.4A24.615 24.615 0 018.223 19.418v-7.242z" stroke="#1D1D1B" stroke-width="3"/><path d="M18 21.151l4 4 8-8" stroke="#1D1D1B" stroke-width="3" stroke-linecap="round" stroke-linejoin="round"/></svg>
